src/icon/entity/cashback-bonus/icon_cashback-bonus_s_white.svg

<svg xmlns="http://www.w3.org/2000/svg" width="18" height="18" viewBox="0 0 18 18"><g fill="none" fill-rule="evenodd"><rect width="18" height="18"/><g transform="translate(1 1)"><path fill="#FFF" d="M13.6811764,5.533205 C15.0895441,6.59506484 16,8.28211732 16,10.1818182 C16,13.3951113 13.3951113,16 10.1818182,16 C8.28211732,16 6.59506484,15.0895441 5.533205,13.6811764 C5.97784484,13.7710259 6.43796094,13.8181818 6.90909091,13.8181818 C10.7248765,13.8181818 13.8181818,10.7248765 13.8181818,6.90909091 C13.8181818,6.43796094 13.7710259,5.97784484 13.6811764,5.533205 Z" opacity=".3"/><circle cx="6.909" cy="6.909" r="6.409" stroke="#FFF"/><path fill="#FFF" fill-rule="nonzero" d="M7.50606061,4.26203436 C7.54848486,4.39400385 8.52969696,7.499009 8.55878788,7.59206443 C8.56727274,7.61778151 8.56181814,7.66075619 8.5269697,7.67598347 C8.49242425,7.69121075 7.98242424,7.92029622 7.95424245,7.93247799 C7.9260606,7.94499818 7.89424242,7.92672553 7.88393942,7.89424072 C7.87333336,7.86209426 7.64909087,7.10208538 7.62515149,7.02628754 L6.21818182,7.01951989 L5.9369697,7.89424072 C5.92696969,7.92537198 5.89666667,7.94635172 5.86666666,7.93247799 L5.29424243,7.67598347 C5.26514412,7.66211792 5.25088616,7.62521604 5.26181818,7.59206443 C5.29818182,7.47566059 6.26424242,4.42073613 6.31393939,4.26203436 C6.40939394,3.95410556 6.53272727,3.63636364 6.91030305,3.63636364 C7.28818179,3.63636364 7.40696973,3.9490298 7.50606061,4.26203436 Z M5.09090909,9.19160225 L5.09090909,9.93333849 C5.09090909,9.97056063 5.1160606,10 5.14727273,10 L8.67151516,10 C8.70242421,10 8.72727273,9.97056063 8.72727273,9.93333849 L8.72727273,9.19160225 C8.72727273,9.15438011 8.70242421,9.12494074 8.67151516,9.12494074 L5.14727273,9.12494074 C5.1160606,9.12460239 5.09090909,9.15471846 5.09090909,9.19160225 Z M6.41212121,6.3258341 L7.40333333,6.3258341 L6.96060609,4.65760443 L6.84515151,4.65760443 L6.41212121,6.3258341 Z"/></g></g></svg>

<svg xmlns="http://www.w3.org/2000/svg" width="18" height="18" viewBox="0 0 18 18"><g fill="none" fill-rule="evenodd"><path d="M0 0h18v18H0z"/><g transform="translate(1 1)"><path fill="#FFF" d="M13.681 5.533a5.818 5.818 0 1 1-8.148 8.148 6.91 6.91 0 0 0 8.148-8.148z" opacity=".3"/><circle cx="6.909" cy="6.909" r="6.409" stroke="#FFF"/><path fill="#FFF" fill-rule="nonzero" d="M7.506 4.262l1.053 3.33c.008.026.003.069-.032.084l-.573.256c-.028.013-.06-.005-.07-.038-.01-.032-.235-.792-.259-.868L6.218 7.02l-.281.874c-.01.031-.04.052-.07.038l-.573-.256c-.029-.014-.043-.05-.032-.084l1.052-3.33c.095-.308.219-.626.596-.626.378 0 .497.313.596.626zm-2.415 4.93v.741c0 .038.025.067.056.067h3.525c.03 0 .055-.03.055-.067v-.741c0-.038-.025-.067-.055-.067H5.147c-.03 0-.056.03-.056.067zm1.321-2.866h.991l-.442-1.668h-.116l-.433 1.668z"/></g></g></svg>
